icons/sidebar-expand-16.svg

<svg xmlns="http://www.w3.org/2000/svg" width="16" height="16" viewBox="0 0 16 16"><path d="M4.177 7.823l2.396-2.396A.25.25 0 017 5.604v4.792a.25.25 0 01-.427.177L4.177 8.177a.25.25 0 010-.354z"/><path d="M0 1.75C0 .784.784 0 1.75 0h12.5C15.216 0 16 .784 16 1.75v12.5A1.75 1.75 0 0114.25 16H1.75A1.75 1.75 0 010 14.25zm1.75-.25a.25.25 0 00-.25.25v12.5c0 .138.112.25.25.25H9.5v-13zm12.5 13a.25.25 0 00.25-.25V1.75a.25.25 0 00-.25-.25H11v13z"/></svg>

<svg xmlns="http://www.w3.org/2000/svg" width="16" height="16" viewBox="0 0 16 16">
  <defs/>
  <path d="M4.177,7.823 L6.573,5.427 C6.645,5.355 6.752,5.334 6.846,5.373 C6.939,5.411 7,5.503 7,5.604 L7,10.396 C7,10.497 6.939,10.589 6.846,10.627 C6.752,10.666 6.645,10.645 6.573,10.573 L4.177,8.177 C4.13,8.13 4.104,8.066 4.104,8 C4.104,7.934 4.13,7.87 4.177,7.823 Z"/>
  <path d="M0,1.75 C0,0.784 0.784,0 1.75,0 L14.25,0 C15.216,0 16,0.784 16,1.75 L16,14.25 C16,15.216 15.216,16 14.25,16 L1.75,16 C0.784,16 0,15.216 0,14.25 Z M1.75,1.5 C1.612,1.5 1.5,1.612 1.5,1.75 L1.5,14.25 C1.5,14.388 1.612,14.5 1.75,14.5 L9.5,14.5 L9.5,1.5 Z M14.25,14.5 C14.388,14.5 14.5,14.388 14.5,14.25 L14.5,1.75 C14.5,1.612 14.388,1.5 14.25,1.5 L11,1.5 L11,14.5 Z"/>
</svg>
